COLOR/action 16/16/cards-deal.svg

<svg height="16" width="16" xmlns="http://www.w3.org/2000/svg" xmlns:xlink="http://www.w3.org/1999/xlink"><filter id="a" color-interpolation-filters="sRGB" height="1.019385" width="1.0315" x="-.01575" y="-.009692"><feGaussianBlur stdDeviation=".52499999"/></filter><g stroke-width="1.066667"><circle cx="8" cy="8" fill="#c43ac4" r="8"/><path d="m8 0a8 8 0 0 0 -8 8 8 8 0 0 0 .0104167.30625 8 8 0 0 1 7.9895833-7.77291667 8 8 0 0 1 7.989583 7.69374997 8 8 0 0 0 .010417-.2270833 8 8 0 0 0 -8-8z" fill="#fff8ff" opacity=".3"/><path d="m15.989583 7.69375a8 8 0 0 1 -7.989583 7.772917 8 8 0 0 1 -7.98958334-7.6937503 8 8 0 0 0 -.01041666.2270833 8 8 0 0 0 8 8 8 8 0 0 0 8-8 8 8 0 0 0 -.01042-.30625z" opacity=".2"/></g><g enable-background="new" transform="matrix(.07142857 0 0 .07142857 32.19370469844 .92494155432)"><path d="m-338.23462 34.050831c21.38251 32.907525 32.34331 67.535299 39.52275 83.126749h-24.25062v46.87325h-30.54426v-46.87325h-25.20512c7.17637-15.59051 19.09474-50.218914 40.47725-83.126749z" filter="url(#a)" opacity=".1" transform="matrix(-1 0 0 -1 -677.42374 198.10166)"/><path d="m-339.18912 163.05085c-21.38251-32.90753-32.34331-67.5353-39.52275-83.12675h24.25062v-46.87325h30.54426v46.87325h25.20512c-7.17637 15.59051-19.09474 50.21891-40.47725 83.12675z" fill="#f7f7f7"/></g></svg>

<?xml version="1.0" encoding="UTF-8" standalone="no"?>
<svg
   xmlns:dc="http://purl.org/dc/elements/1.1/"
   xmlns:cc="http://creativecommons.org/ns#"
   xmlns:rdf="http://www.w3.org/1999/02/22-rdf-syntax-ns#"
   xmlns:svg="http://www.w3.org/2000/svg"
   xmlns="http://www.w3.org/2000/svg"
   xmlns:sodipodi="http://sodipodi.sourceforge.net/DTD/sodipodi-0.dtd"
   xmlns:inkscape="http://www.inkscape.org/namespaces/inkscape"
   height="16"
   width="16"
   version="1.1"
   id="svg14"
   sodipodi:docname="cards-deal.svg"
   inkscape:version="0.92.4 (5da689c313, 2019-01-14)">
  <metadata
     id="metadata20">
    <rdf:RDF>
      <cc:Work
         rdf:about="">
        <dc:format>image/svg+xml</dc:format>
        <dc:type
           rdf:resource="http://purl.org/dc/dcmitype/StillImage" />
      </cc:Work>
    </rdf:RDF>
  </metadata>
  <defs
     id="defs18">
    <filter
       height="1.0193846"
       y="-0.0096923076"
       width="1.0315"
       x="-0.01575"
       id="filter10875"
       style="color-interpolation-filters:sRGB"
       inkscape:collect="always">
      <feGaussianBlur
         id="feGaussianBlur10877"
         stdDeviation="0.52499999"
         inkscape:collect="always" />
    </filter>
    <linearGradient
       id="linearGradient10935">
      <stop
         style="stop-color:#319741;stop-opacity:1"
         offset="0"
         id="stop10931" />
      <stop
         style="stop-color:#0e8420;stop-opacity:1"
         offset="1"
         id="stop10933" />
    </linearGradient>
  </defs>
  <sodipodi:namedview
     pagecolor="#ffffff"
     bordercolor="#666666"
     borderopacity="1"
     objecttolerance="10"
     gridtolerance="10"
     guidetolerance="10"
     inkscape:pageopacity="0"
     inkscape:pageshadow="2"
     inkscape:window-width="1920"
     inkscape:window-height="1016"
     id="namedview16"
     showgrid="false"
     inkscape:zoom="14.75"
     inkscape:cx="-5.0508475"
     inkscape:cy="8"
     inkscape:window-x="0"
     inkscape:window-y="27"
     inkscape:window-maximized="1"
     inkscape:current-layer="g10881" />
  <circle
     cx="8"
     cy="8"
     r="8"
     id="circle6"
     style="fill:#c43ac4;stroke-width:1.06666672;fill-opacity:1" />
  <path
     d="M 8,0 A 8,8 0 0 0 0,8 8,8 0 0 0 0.0104167,8.30625 8,8 0 0 1 8,0.53333333 8,8 0 0 1 15.989583,8.2270833 8,8 0 0 0 16,8 8,8 0 0 0 8,0 Z"
     id="path10"
     inkscape:connector-curvature="0"
     style="opacity:0.3;fill:#fff8ff;stroke-width:1.06666672" />
  <path
     d="M 15.989583,7.69375 A 8,8 0 0 1 8,15.466667 8,8 0 0 1 0.01041666,7.7729167 8,8 0 0 0 0,8 8,8 0 0 0 8,16 8,8 0 0 0 16,8 8,8 0 0 0 15.98958,7.69375 Z"
     id="path12"
     inkscape:connector-curvature="0"
     style="opacity:0.2;stroke-width:1.06666672" />
  <g
     id="g855"
     transform="translate(34.169492,3.8644068)">
    <g
       transform="matrix(0.07142857,0,0,0.07142857,-2.7678452,-3.7947664)"
       id="g10881"
       style="display:inline;enable-background:new">
      <g
         id="g859"
         transform="translate(11.088808,11.974208)">
        <path
           transform="rotate(-180,-338.71187,99.05083)"
           id="path913"
           d="m -338.23462,34.050831 c 21.38251,32.907525 32.34331,67.535299 39.52275,83.126749 h -24.25062 v 46.87325 h -30.54426 v -46.87325 h -25.20512 c 7.17637,-15.59051 19.09474,-50.218914 40.47725,-83.126749 z"
           style="color:#000000;font-style:normal;font-variant:normal;font-weight:normal;font-stretch:normal;font-size:medium;line-height:normal;font-family:sans-serif;font-variant-ligatures:normal;font-variant-position:normal;font-variant-caps:normal;font-variant-numeric:normal;font-variant-alternates:normal;font-feature-settings:normal;text-indent:0;text-align:start;text-decoration:none;text-decoration-line:none;text-decoration-style:solid;text-decoration-color:#000000;letter-spacing:normal;word-spacing:normal;text-transform:none;writing-mode:lr-tb;direction:ltr;text-orientation:mixed;dominant-baseline:auto;baseline-shift:baseline;text-anchor:start;white-space:normal;shape-padding:0;clip-rule:nonzero;display:inline;overflow:visible;visibility:visible;opacity:0.1;isolation:auto;mix-blend-mode:normal;color-interpolation:sRGB;color-interpolation-filters:linearRGB;solid-color:#000000;solid-opacity:1;vector-effect:none;fill:#000000;fill-opacity:1;fill-rule:nonzero;stroke:none;stroke-width:1.54472721;stroke-linecap:butt;stroke-linejoin:miter;stroke-miterlimit:4;stroke-dasharray:none;stroke-dashoffset:0;stroke-opacity:1;marker:none;filter:url(#filter10875);color-rendering:auto;image-rendering:auto;shape-rendering:auto;text-rendering:auto;enable-background:accumulate"
           inkscape:connector-curvature="0"
           sodipodi:nodetypes="cccccccc" />
        <path
           sodipodi:nodetypes="cccccccc"
           inkscape:connector-curvature="0"
           style="color:#000000;font-style:normal;font-variant:normal;font-weight:normal;font-stretch:normal;font-size:medium;line-height:normal;font-family:sans-serif;font-variant-ligatures:normal;font-variant-position:normal;font-variant-caps:normal;font-variant-numeric:normal;font-variant-alternates:normal;font-feature-settings:normal;text-indent:0;text-align:start;text-decoration:none;text-decoration-line:none;text-decoration-style:solid;text-decoration-color:#000000;letter-spacing:normal;word-spacing:normal;text-transform:none;writing-mode:lr-tb;direction:ltr;text-orientation:mixed;dominant-baseline:auto;baseline-shift:baseline;text-anchor:start;white-space:normal;shape-padding:0;clip-rule:nonzero;display:inline;overflow:visible;visibility:visible;opacity:1;isolation:auto;mix-blend-mode:normal;color-interpolation:sRGB;color-interpolation-filters:linearRGB;solid-color:#000000;solid-opacity:1;vector-effect:none;fill:#f7f7f7;fill-opacity:1;fill-rule:nonzero;stroke:none;stroke-width:1.54472721;stroke-linecap:butt;stroke-linejoin:miter;stroke-miterlimit:4;stroke-dasharray:none;stroke-dashoffset:0;stroke-opacity:1;marker:none;color-rendering:auto;image-rendering:auto;shape-rendering:auto;text-rendering:auto;enable-background:accumulate"
           d="m -339.18912,163.05085 c -21.38251,-32.90753 -32.34331,-67.5353 -39.52275,-83.12675 h 24.25062 V 33.05085 h 30.54426 V 79.9241 h 25.20512 c -7.17637,15.59051 -19.09474,50.21891 -40.47725,83.12675 z"
           id="path10681" />
      </g>
    </g>
  </g>
</svg>
